image/why/icon-3.svg

<svg width="40" height="50" viewBox="0 0 40 50" fill="none" xmlns="http://www.w3.org/2000/svg">
<circle cx="19.2232" cy="24.9373" r="3.83651" fill="#C63031"/>
<path d="M0.684484 18.3115C0.684486 18.8638 1.1322 19.3115 1.68449 19.3115L10.6845 19.3115C11.2368 19.3115 11.6845 18.8638 11.6845 18.3115C11.6845 17.7593 11.2368 17.3115 10.6845 17.3115H2.68449V9.31154C2.68449 8.75926 2.23677 8.31154 1.68449 8.31154C1.1322 8.31154 0.684484 8.75926 0.684486 9.31154L0.684484 18.3115ZM2.39159 19.0186C12.1143 9.29598 27.8778 9.29598 37.6005 19.0186L39.0147 17.6044C28.511 7.10071 11.4811 7.10071 0.977379 17.6044L2.39159 19.0186Z" fill="black"/>
<path d="M38.6231 31.6884C38.6231 31.1361 38.1754 30.6884 37.6231 30.6884L28.6231 30.6884C28.0708 30.6884 27.6231 31.1361 27.6231 31.6884C27.6231 32.2407 28.0708 32.6884 28.6231 32.6884H36.6231V40.6884C36.6231 41.2407 37.0708 41.6884 37.6231 41.6884C38.1754 41.6884 38.6231 41.2407 38.6231 40.6884L38.6231 31.6884ZM36.916 30.9813C27.1934 40.704 11.4298 40.704 1.70711 30.9813L0.292893 32.3955C10.7966 42.8992 27.8265 42.8992 38.3302 32.3955L36.916 30.9813Z" fill="black"/>
</svg>

<svg xmlns="http://www.w3.org/2000/svg" width="40" height="50" fill="none"><circle cx="19.223" cy="24.937" r="3.837" fill="#C63031"/><path fill="#000" d="M.684 18.311a1 1 0 0 0 1 1h9a1 1 0 1 0 0-2h-8v-8a1 1 0 0 0-2 0v9Zm1.708.708c9.722-9.723 25.486-9.723 35.208 0l1.415-1.415C28.51 7.101 11.48 7.101.977 17.604l1.415 1.415ZM38.623 31.688a1 1 0 0 0-1-1h-9a1 1 0 1 0 0 2h8v8a1 1 0 1 0 2 0v-9Zm-1.707-.707c-9.723 9.723-25.486 9.723-35.209 0L.293 32.395c10.504 10.504 27.534 10.504 38.037 0l-1.414-1.414Z"/></svg>
